X:357
T:Niel Gow's Fiddle
C:Nathaniel Gow
B:The Gow Collection (New York 1986)
Z:Nigel Gatherer <gatherer@argonet.co.uk> 2002-3-22
L:1/8
M:4/4
K:D
f/e/|d>D AG/F/ E=C Cf/e/|dD B/A/G/F/ d2 df/e/|dD AG/F/ E=CC>E|
D>Fd>F A2 Af/e/|d>D AG/F/ E=C Cf/e/|dD B/A/G/F/ d2 df/e/|
dD AG/F/ E=CC>E|D>Fd>F A2 A||f/g/|af dg/f/ e=c cf/g/|
afdg fd f/g/a/f/|af dg/f/ e=c cf/g/|a>fd>A d2 df/g/|
af dg/f/ e=c cf/g/|afdA Fd AG/F/|GB/G/ Fd/F E=CCE|D>Fd>F A2 A|]
